X:1
T:James Gibb editions
T:Come, magnify the Saviour's love - Barnby
%%score [ ( 1 2 ) ( 3 4 ) ]
L:1/8
Q:1/4=75
M:4/4
K:C
V:1 treble nm="Midi_74"
V:2 treble 
V:3 bass nm="Midi_74"
V:4 bass 
V:1
"^St Alphege (D.L.M.)""^Come, magnify the Saviour's love""^Joseph Barnby\n(1838-96)"!f! c2 | %1
 B2 c2 A2 c2 | e2 d2 c2 || c2 | B2 A2 d2 G2 | G2 A2 G2 ||[M:4/4] G2 | G2 c2 A2 c2 | e2 d2 c2 || %9
 c2 | A2 G2 F2 E2 | D2 D2 E2 || E2 | A2 ^G2 A2 d2 | B2 B2 c2 || A2 | B2 ^F2 G2 c2 | A2 A2 B2 || %18
 G2 | G2 G2 A2 c2 |!f! e2 d2 c2 || c2 | A2 G2 E2 FE | D2 D2 C4 || F4 E4 |] %25
V:2
 E2 | D2 C2 C2 F2 | G3 F E2 || C2 | D2 D2 D2 B,C | D2 C2 B,2 ||[M:4/4] D2 | C2 C2 C2 F2 | %8
 E2 G2 G2 || G2 | F2 C2 CB, C2 | A,2 B,2 C2 || D2 | C2 D2 E2 D2 | F2 E2 E2 || D2 | D2 D2 D2 C2 | %17
 E2 DC B,2 || =F2 | E2 E2 F2 A2 | A2 ^G2 A2 || !courtesy!=G2 | F2 D2 C2 C2 | C2 B,2 C4 || C4 C4 |] %25
V:3
 G,2 | G,2 G,2 A,2 A,2 | C2 B,2 C2 || G,2 | G,2 ^F,2 G,2 G,A, | B,2 ^F,2 G,2 || %6
[M:4/4] !courtesy!=F,2 | E,2 G,2 A,2 A,2 | C2 B,2 C2 || C2 | C2 G,2 A,G, G,2 | A,2 G,2 G,2 || %12
 ^G,2 | A,2 D2 C2 A,2 | A,2 ^G,2 A,2 || ^F,2 | G,2 A,2 G,2 G,2 | G,2 ^F,2 G,2 || B,2 | %19
 C2 _B,2 A,2 A,2 | C2 B,2 A,2 || C2 | C2 D2 G,2 F,G, | A,2 G,F, E,4 || A,4 G,4 |] %25
V:4
 C,2 | G,2 E,2 F,2 A,2 | G,2 G,2 C,2 || E,2 | D,2 C,2 B,,2 E,2 | D,2 D,2 G,,2 ||[M:4/4] B,,2 | %7
 C,2 E,2 F,2 A,2 | G,2 F,2 E,2 || E,2 | F,2 E,2 D,G,, C,2 | F,,2 G,,2 C,2 || B,,2 | %13
 A,,2 B,,2 C,2 F,2 | D,2 E,2 A,,2 || D,2 | G,,2 C,2 B,,2 E,2 | C,2 D,2 G,,2 || G,,2 | %19
 C,2 C,2 F,2 F,2 | E,2 E,2 A,2 || E,2 | F,2 B,,2 C,2 A,,G,, | F,,2 G,,2 C,4 || F,4 C,4 |] %25

